content/blogs/regnskap/hva-er-kunde/customer-role-accounting.svg

<svg xmlns="http://www.w3.org/2000/svg" width="800" height="500"><defs><linearGradient id="a" x1="0%" x2="100%" y1="0%" y2="100%"><stop offset="0%" style="stop-color:#f8f9fa;stop-opacity:1"/><stop offset="100%" style="stop-color:#e9ecef;stop-opacity:1"/></linearGradient><filter id="b" width="140%" height="140%" x="-20%" y="-20%"><feDropShadow dx="2" dy="2" flood-color="#00000020" stdDeviation="3"/></filter></defs><path fill="url(#a)" d="M0 0h800v500H0z"/><text x="400" y="40" fill="#333" font-family="Arial, sans-serif" font-size="24" font-weight="bold" text-anchor="middle">
    Kundens Rolle i Regnskapet
  </text><g transform="translate(100 100)"><rect width="120" height="80" fill="#06c" filter="url(#b)" rx="10"/><circle cx="60" cy="30" r="15" fill="#fff"/><path fill="#fff" d="M35 55q25-10 50 0v15H35Z"/><text x="60" y="95" fill="#333" font-family="Arial, sans-serif" font-size="14" font-weight="bold" text-anchor="middle">
      KUNDE
    </text></g><path fill="none" stroke="#666" stroke-width="2" marker-end="url(#c)" d="M220 140h60"/><defs><marker id="c" markerHeight="6" markerWidth="8" orient="auto" refX="7" refY="3"><path fill="#666" d="m0 0 8 3-8 3z"/></marker></defs><g transform="translate(300 100)"><rect width="140" height="80" fill="#28a745" filter="url(#b)" rx="10"/><text x="70" y="25" fill="#fff" font-family="Arial, sans-serif" font-size="12" font-weight="bold" text-anchor="middle">
      INNTEKTSFØRING
    </text><text x="70" y="45" fill="#fff" font-family="Arial, sans-serif" font-size="11" text-anchor="middle">
      Driftsinntekter
    </text><text x="70" y="60" fill="#fff" font-family="Arial, sans-serif" font-size="11" text-anchor="middle">
      Salgsinntekter
    </text><text x="70" y="75" fill="#fff" font-family="Arial, sans-serif" font-size="11" text-anchor="middle">
      MVA-grunnlag
    </text></g><path fill="none" stroke="#666" stroke-width="2" marker-end="url(#d)" d="m220 140 60 80"/><defs><marker id="d" markerHeight="6" markerWidth="8" orient="auto" refX="7" refY="3"><path fill="#666" d="m0 0 8 3-8 3z"/></marker></defs><g transform="translate(300 200)"><rect width="140" height="80" fill="#ffc107" filter="url(#b)" rx="10"/><text x="70" y="25" fill="#fff" font-family="Arial, sans-serif" font-size="12" font-weight="bold" text-anchor="middle">
      DEBITORHÅNDTERING
    </text><text x="70" y="45" fill="#fff" font-family="Arial, sans-serif" font-size="11" text-anchor="middle">
      Kundefordringer
    </text><text x="70" y="60" fill="#fff" font-family="Arial, sans-serif" font-size="11" text-anchor="middle">
      Kredittgivning
    </text><text x="70" y="75" fill="#fff" font-family="Arial, sans-serif" font-size="11" text-anchor="middle">
      Oppfølging
    </text></g><path fill="none" stroke="#666" stroke-width="2" marker-end="url(#e)" d="m220 140 60 160"/><defs><marker id="e" markerHeight="6" markerWidth="8" orient="auto" refX="7" refY="3"><path fill="#666" d="m0 0 8 3-8 3z"/></marker></defs><g transform="translate(300 300)"><rect width="140" height="80" fill="#17a2b8" filter="url(#b)" rx="10"/><text x="70" y="25" fill="#fff" font-family="Arial, sans-serif" font-size="12" font-weight="bold" text-anchor="middle">
      KONTANTSTRØM
    </text><text x="70" y="45" fill="#fff" font-family="Arial, sans-serif" font-size="11" text-anchor="middle">
      Innbetalinger
    </text><text x="70" y="60" fill="#fff" font-family="Arial, sans-serif" font-size="11" text-anchor="middle">
      Likviditet
    </text><text x="70" y="75" fill="#fff" font-family="Arial, sans-serif" font-size="11" text-anchor="middle">
      Arbeidskapital
    </text></g><g transform="translate(500 150)"><rect width="140" height="80" fill="#dc3545" filter="url(#b)" rx="10"/><text x="70" y="25" fill="#fff" font-family="Arial, sans-serif" font-size="12" font-weight="bold" text-anchor="middle">
      RISIKOSTYRING
    </text><text x="70" y="45" fill="#fff" font-family="Arial, sans-serif" font-size="11" text-anchor="middle">
      Kredittrisiko
    </text><text x="70" y="60" fill="#fff" font-family="Arial, sans-serif" font-size="11" text-anchor="middle">
      Konsentrasjon
    </text><text x="70" y="75" fill="#fff" font-family="Arial, sans-serif" font-size="11" text-anchor="middle">
      Tap på fordringer
    </text></g><path fill="none" stroke="#666" stroke-dasharray="5,5" d="m440 140 60 40M440 240l60-30M440 340l60-120"/><g transform="translate(500 280)"><rect width="140" height="80" fill="#6f42c1" filter="url(#b)" rx="10"/><text x="70" y="25" fill="#fff" font-family="Arial, sans-serif" font-size="12" font-weight="bold" text-anchor="middle">
      BALANSE
    </text><text x="70" y="45" fill="#fff" font-family="Arial, sans-serif" font-size="11" text-anchor="middle">
      Eiendeler
    </text><text x="70" y="60" fill="#fff" font-family="Arial, sans-serif" font-size="11" text-anchor="middle">
      Omløpsmidler
    </text><text x="70" y="75" fill="#fff" font-family="Arial, sans-serif" font-size="11" text-anchor="middle">
      Fordringer
    </text></g><path fill="none" stroke="#666" stroke-dasharray="5,5" d="m440 340 60-20"/><rect width="700" height="60" x="50" y="420" fill="#fff" stroke="#ddd" opacity=".9" rx="5"/><text x="400" y="440" fill="#333" font-family="Arial, sans-serif" font-size="14" font-weight="bold" text-anchor="middle">
    Kundens påvirkning på regnskapet
  </text><text x="70" y="460" fill="#666" font-family="Arial, sans-serif" font-size="12">
    Direkte påvirkning
  </text><path stroke="#666" stroke-width="2" d="M170 456h20"/><text x="210" y="460" fill="#666" font-family="Arial, sans-serif" font-size="12">
    Indirekte påvirkning
  </text><path stroke="#666" stroke-dasharray="5,5" d="M320 456h20"/></svg>

<svg width="800" height="500" xmlns="http://www.w3.org/2000/svg">
  <defs>
    <linearGradient id="bgGrad" x1="0%" y1="0%" x2="100%" y2="100%">
      <stop offset="0%" style="stop-color:#f8f9fa;stop-opacity:1" />
      <stop offset="100%" style="stop-color:#e9ecef;stop-opacity:1" />
    </linearGradient>
    <filter id="shadow" x="-20%" y="-20%" width="140%" height="140%">
      <feDropShadow dx="2" dy="2" stdDeviation="3" flood-color="#00000020"/>
    </filter>
  </defs>
  

  <rect width="800" height="500" fill="url(#bgGrad)"/>
  

  <text x="400" y="40" font-family="Arial, sans-serif" font-size="24" font-weight="bold" text-anchor="middle" fill="#333">
    Kundens Rolle i Regnskapet
  </text>
  

  <g transform="translate(100, 100)">
    <rect x="0" y="0" width="120" height="80" fill="#0066cc" rx="10" filter="url(#shadow)"/>
    <circle cx="60" cy="30" r="15" fill="white"/>
    <path d="M 35 55 Q 60 45 85 55 L 85 70 L 35 70 Z" fill="white"/>
    <text x="60" y="95" font-family="Arial, sans-serif" font-size="14" font-weight="bold" text-anchor="middle" fill="#333">
      KUNDE
    </text>
  </g>
  


  <path d="M 220 140 L 280 140" stroke="#666" stroke-width="2" fill="none" marker-end="url(#arrow)"/>
  <defs>
    <marker id="arrow" markerWidth="8" markerHeight="6" refX="7" refY="3" orient="auto">
      <polygon points="0 0, 8 3, 0 6" fill="#666"/>
    </marker>
  </defs>
  

  <g transform="translate(300, 100)">
    <rect x="0" y="0" width="140" height="80" fill="#28a745" rx="10" filter="url(#shadow)"/>
    <text x="70" y="25" font-family="Arial, sans-serif" font-size="12" font-weight="bold" text-anchor="middle" fill="white">
      INNTEKTSFØRING
    </text>
    <text x="70" y="45" font-family="Arial, sans-serif" font-size="11" text-anchor="middle" fill="white">
      Driftsinntekter
    </text>
    <text x="70" y="60" font-family="Arial, sans-serif" font-size="11" text-anchor="middle" fill="white">
      Salgsinntekter
    </text>
    <text x="70" y="75" font-family="Arial, sans-serif" font-size="11" text-anchor="middle" fill="white">
      MVA-grunnlag
    </text>
  </g>
  

  <path d="M 220 140 L 280 220" stroke="#666" stroke-width="2" fill="none" marker-end="url(#arrow2)"/>
  <defs>
    <marker id="arrow2" markerWidth="8" markerHeight="6" refX="7" refY="3" orient="auto">
      <polygon points="0 0, 8 3, 0 6" fill="#666"/>
    </marker>
  </defs>
  

  <g transform="translate(300, 200)">
    <rect x="0" y="0" width="140" height="80" fill="#ffc107" rx="10" filter="url(#shadow)"/>
    <text x="70" y="25" font-family="Arial, sans-serif" font-size="12" font-weight="bold" text-anchor="middle" fill="white">
      DEBITORHÅNDTERING
    </text>
    <text x="70" y="45" font-family="Arial, sans-serif" font-size="11" text-anchor="middle" fill="white">
      Kundefordringer
    </text>
    <text x="70" y="60" font-family="Arial, sans-serif" font-size="11" text-anchor="middle" fill="white">
      Kredittgivning
    </text>
    <text x="70" y="75" font-family="Arial, sans-serif" font-size="11" text-anchor="middle" fill="white">
      Oppfølging
    </text>
  </g>
  

  <path d="M 220 140 L 280 300" stroke="#666" stroke-width="2" fill="none" marker-end="url(#arrow3)"/>
  <defs>
    <marker id="arrow3" markerWidth="8" markerHeight="6" refX="7" refY="3" orient="auto">
      <polygon points="0 0, 8 3, 0 6" fill="#666"/>
    </marker>
  </defs>
  

  <g transform="translate(300, 300)">
    <rect x="0" y="0" width="140" height="80" fill="#17a2b8" rx="10" filter="url(#shadow)"/>
    <text x="70" y="25" font-family="Arial, sans-serif" font-size="12" font-weight="bold" text-anchor="middle" fill="white">
      KONTANTSTRØM
    </text>
    <text x="70" y="45" font-family="Arial, sans-serif" font-size="11" text-anchor="middle" fill="white">
      Innbetalinger
    </text>
    <text x="70" y="60" font-family="Arial, sans-serif" font-size="11" text-anchor="middle" fill="white">
      Likviditet
    </text>
    <text x="70" y="75" font-family="Arial, sans-serif" font-size="11" text-anchor="middle" fill="white">
      Arbeidskapital
    </text>
  </g>
  

  <g transform="translate(500, 150)">
    <rect x="0" y="0" width="140" height="80" fill="#dc3545" rx="10" filter="url(#shadow)"/>
    <text x="70" y="25" font-family="Arial, sans-serif" font-size="12" font-weight="bold" text-anchor="middle" fill="white">
      RISIKOSTYRING
    </text>
    <text x="70" y="45" font-family="Arial, sans-serif" font-size="11" text-anchor="middle" fill="white">
      Kredittrisiko
    </text>
    <text x="70" y="60" font-family="Arial, sans-serif" font-size="11" text-anchor="middle" fill="white">
      Konsentrasjon
    </text>
    <text x="70" y="75" font-family="Arial, sans-serif" font-size="11" text-anchor="middle" fill="white">
      Tap på fordringer
    </text>
  </g>
  

  <path d="M 440 140 L 500 180" stroke="#666" stroke-width="1" stroke-dasharray="5,5" fill="none"/>
  <path d="M 440 240 L 500 210" stroke="#666" stroke-width="1" stroke-dasharray="5,5" fill="none"/>
  <path d="M 440 340 L 500 220" stroke="#666" stroke-width="1" stroke-dasharray="5,5" fill="none"/>
  

  <g transform="translate(500, 280)">
    <rect x="0" y="0" width="140" height="80" fill="#6f42c1" rx="10" filter="url(#shadow)"/>
    <text x="70" y="25" font-family="Arial, sans-serif" font-size="12" font-weight="bold" text-anchor="middle" fill="white">
      BALANSE
    </text>
    <text x="70" y="45" font-family="Arial, sans-serif" font-size="11" text-anchor="middle" fill="white">
      Eiendeler
    </text>
    <text x="70" y="60" font-family="Arial, sans-serif" font-size="11" text-anchor="middle" fill="white">
      Omløpsmidler
    </text>
    <text x="70" y="75" font-family="Arial, sans-serif" font-size="11" text-anchor="middle" fill="white">
      Fordringer
    </text>
  </g>
  

  <path d="M 440 340 L 500 320" stroke="#666" stroke-width="1" stroke-dasharray="5,5" fill="none"/>
  

  <rect x="50" y="420" width="700" height="60" fill="white" opacity="0.9" rx="5" stroke="#ddd"/>
  <text x="400" y="440" font-family="Arial, sans-serif" font-size="14" font-weight="bold" text-anchor="middle" fill="#333">
    Kundens påvirkning på regnskapet
  </text>
  <text x="70" y="460" font-family="Arial, sans-serif" font-size="12" fill="#666">
    Direkte påvirkning
  </text>
  <line x1="170" y1="456" x2="190" y2="456" stroke="#666" stroke-width="2"/>
  <text x="210" y="460" font-family="Arial, sans-serif" font-size="12" fill="#666">
    Indirekte påvirkning
  </text>
  <line x1="320" y1="456" x2="340" y2="456" stroke="#666" stroke-width="1" stroke-dasharray="5,5"/>
</svg>
